src/assets/animalImage/img/rabbit.svg

<?xml version="1.0" encoding="UTF-8" standalone="no"?><!DOCTYPE svg PUBLIC "-//W3C//DTD SVG 1.1//EN" "http://www.w3.org/Graphics/SVG/1.1/DTD/svg11.dtd"><svg width="100%" height="100%" viewBox="0 0 48 96" version="1.1" xmlns="http://www.w3.org/2000/svg" xmlns:xlink="http://www.w3.org/1999/xlink" xml:space="preserve" style="fill-rule:evenodd;clip-rule:evenodd;stroke-linejoin:round;stroke-miterlimit:1.41421;"><path d="M31.531,57.912l-6.869,0l-0.313,0l-6.869,0c0,0 -7.317,8.401 -6.639,20.867c0.634,11.668 12.188,11.822 13.664,11.793c1.477,0.029 13.031,-0.125 13.665,-11.793c0.678,-12.466 -6.639,-20.867 -6.639,-20.867" style="fill:#d0b695;fill-rule:nonzero;"/><path d="M32.956,77.548c0,5.742 -3.784,10.398 -8.45,10.398c-4.668,0 -8.451,-4.656 -8.451,-10.398c0,-5.743 3.783,-10.398 8.451,-10.398c4.666,0 8.45,4.655 8.45,10.398" style="fill:#f5f5f5;fill-rule:nonzero;"/><path d="M41.284,1.295c-11.59,-8.767 -13.882,29.852 -13.882,29.852l3.19,4.061c0,0 22.281,-25.145 10.692,-33.913" style="fill:#d0b695;fill-rule:nonzero;"/><path d="M38.641,11.028c-6.481,-4.902 -7.762,16.692 -7.762,16.692l1.784,2.271c0,0 12.459,-14.06 5.978,-18.963" style="fill:#a38561;fill-rule:nonzero;"/><path d="M6.898,1.295c11.589,-8.767 13.881,29.852 13.881,29.852l-3.189,4.061c0,0 -22.282,-25.145 -10.692,-33.913" style="fill:#d0b695;fill-rule:nonzero;"/><path d="M9.54,11.028c6.481,-4.902 7.762,16.692 7.762,16.692l-1.783,2.271c0,0 -12.459,-14.06 -5.979,-18.963" style="fill:#a38561;fill-rule:nonzero;"/><path d="M43.076,41.251c-6.595,-14.436 -14.098,-15.965 -16.92,-15.981c-1.204,-0.09 -3.527,0.006 -3.527,0.006c-2.99,0.104 -10.263,1.936 -16.676,15.975c-1.538,3.366 -2.25,7.241 -0.75,10.749c1.225,2.869 3.66,5.01 6.293,6.576c3.445,2.049 7.338,3.789 11.417,4.152c4.28,0.381 8.378,-1.107 12.203,-2.883c2.976,-1.383 5.898,-3.289 7.744,-6.065c2.13,-3.203 2.196,-7.048 0.982,-10.615c-0.221,-0.651 -0.48,-1.289 -0.766,-1.914" style="fill:#d0b695;fill-rule:nonzero;"/><path d="M7.876,50.109c-3.561,-1.656 -7.753,-0.762 -7.795,-0.753l-0.081,-0.366c0.176,-0.039 4.361,-0.93 8.034,0.78l-0.158,0.339Z" style="fill:#a38561;fill-rule:nonzero;"/><path d="M0.208,54.573l-0.189,-0.324c0.156,-0.091 3.866,-2.221 7.886,-1.722l-0.046,0.372c-3.896,-0.481 -7.614,1.653 -7.651,1.674" style="fill:#a38561;fill-rule:nonzero;"/><path d="M2.355,60.234l-0.299,-0.225c0.108,-0.144 2.701,-3.545 6.603,-4.641l0.101,0.361c-3.777,1.061 -6.379,4.471 -6.405,4.505" style="fill:#a38561;fill-rule:nonzero;"/><path d="M39.978,50.109l-0.158,-0.339c3.675,-1.71 7.857,-0.819 8.033,-0.78l-0.08,0.366c-0.042,-0.009 -4.239,-0.901 -7.795,0.753" style="fill:#a38561;fill-rule:nonzero;"/><path d="M47.645,54.573c-0.037,-0.022 -3.758,-2.157 -7.651,-1.674l-0.045,-0.372c4.018,-0.498 7.729,1.631 7.885,1.722l-0.189,0.324Z" style="fill:#a38561;fill-rule:nonzero;"/><path d="M45.499,60.234c-0.026,-0.034 -2.629,-3.444 -6.405,-4.505l0.101,-0.361c3.902,1.096 6.495,4.497 6.603,4.641l-0.299,0.225Z" style="fill:#a38561;fill-rule:nonzero;"/><path d="M17.363,43.158c0,1.036 -0.84,1.876 -1.876,1.876c-1.037,0 -1.876,-0.84 -1.876,-1.876c0,-1.036 0.839,-1.876 1.876,-1.876c1.036,0 1.876,0.84 1.876,1.876" style="fill:#3d3b37;fill-rule:nonzero;"/><path d="M35.4,43.158c0,1.036 -0.84,1.876 -1.876,1.876c-1.035,0 -1.875,-0.84 -1.875,-1.876c0,-1.036 0.84,-1.876 1.875,-1.876c1.036,0 1.876,0.84 1.876,1.876" style="fill:#3d3b37;fill-rule:nonzero;"/><path d="M29.193,54.464c0,3.669 -2.482,6.643 -5.543,6.643c-3.062,0 -5.543,-2.974 -5.543,-6.643c0,-3.669 2.481,-6.643 5.543,-6.643c3.061,0 5.543,2.974 5.543,6.643" style="fill:#fff;fill-rule:nonzero;"/><path d="M21.551,50.958c0.034,-0.576 1.61,-0.748 2.185,-0.748c0.576,0 1.993,0.212 2.013,0.748c0.023,0.585 -1.668,1.438 -2.099,1.438c-0.431,0 -2.134,-0.855 -2.099,-1.438" style="fill:#3d3b37;fill-rule:nonzero;"/><path d="M13.024,77.547c-0.794,-1.435 -3.282,-1.474 -4.708,-1.327c-1.706,0.177 -3.832,1.303 -4.387,3.029c-0.462,1.435 0.23,3.045 0.941,4.265c1.615,2.771 4.129,4.949 6.496,7.06c0,0 -10.616,2.291 -9.161,4.189c1.455,1.899 18.328,-1.119 16.867,-5.024c-1.461,-3.901 -6.035,-12.169 -6.048,-12.192" style="fill:#d0b695;fill-rule:nonzero;"/><path d="M36.241,77.547c0.795,-1.435 3.283,-1.474 4.709,-1.327c1.705,0.177 3.832,1.303 4.387,3.029c0.462,1.435 -0.229,3.045 -0.942,4.265c-1.614,2.771 -4.128,4.949 -6.495,7.06c0,0 10.616,2.291 9.161,4.189c-1.455,1.899 -18.329,-1.119 -16.867,-5.024c1.46,-3.901 6.035,-12.169 6.047,-12.192" style="fill:#d0b695;fill-rule:nonzero;"/><path d="M21.079,73.47c-4.129,-2.29 -3.911,-8.938 -3.911,-8.938l0,-0.369l-4.516,7.682c5.17,11.375 12.557,3.915 8.427,1.625" style="fill:#d0b695;fill-rule:nonzero;"/><path d="M28.957,73.47c4.13,-2.29 3.912,-8.938 3.912,-8.938l0,-0.369l4.516,7.682c-5.17,11.375 -12.557,3.915 -8.428,1.625" style="fill:#d0b695;fill-rule:nonzero;"/><path d="M22.588,29.575c0,0 0.1,-0.05 0.245,-0.08c0.145,-0.028 0.336,-0.048 0.523,-0.026c0.188,0.018 0.371,0.077 0.506,0.137c0.135,0.06 0.222,0.131 0.222,0.131c0,0 -0.1,0.049 -0.245,0.079c-0.145,0.029 -0.337,0.048 -0.523,0.026c-0.187,-0.018 -0.37,-0.078 -0.505,-0.138c-0.136,-0.06 -0.223,-0.129 -0.223,-0.129" style="fill:#fff;fill-rule:nonzero;"/><path d="M23.466,30.825c0,0 0.094,-0.041 0.234,-0.047c0.137,-0.007 0.319,0.012 0.483,0.084c0.164,0.068 0.306,0.184 0.396,0.288c0.09,0.105 0.128,0.202 0.128,0.202c-0.011,0.01 -0.384,-0.013 -0.671,-0.145c-0.294,-0.115 -0.569,-0.367 -0.57,-0.382" style="fill:#fff;fill-rule:nonzero;"/><path d="M22.586,32.846c0,0 0.102,-0.034 0.242,-0.043c0.141,-0.007 0.323,0.001 0.494,0.05c0.348,0.08 0.642,0.354 0.639,0.368c-0.004,0.014 -0.397,0.101 -0.737,-0.007c-0.172,-0.045 -0.334,-0.13 -0.451,-0.208c-0.117,-0.079 -0.187,-0.16 -0.187,-0.16" style="fill:#fff;fill-rule:nonzero;"/><path d="M25.463,34.076c0,0 0.102,-0.049 0.261,-0.058c0.156,-0.011 0.368,0.015 0.555,0.107c0.189,0.087 0.343,0.233 0.434,0.361c0.091,0.129 0.118,0.24 0.118,0.24c-0.015,0.005 -0.404,-0.11 -0.714,-0.263c-0.313,-0.144 -0.648,-0.372 -0.654,-0.387" style="fill:#fff;fill-rule:nonzero;"/><path d="M25.976,32.669c0.005,-0.014 0.333,-0.109 0.605,-0.014c0.279,0.07 0.5,0.331 0.496,0.345c-0.004,0.014 -0.333,0.11 -0.604,0.014c-0.279,-0.07 -0.501,-0.331 -0.497,-0.345" style="fill:#fff;fill-rule:nonzero;"/><path d="M25.824,30.113c0.008,-0.012 0.335,-0.01 0.548,0.154c0.228,0.142 0.342,0.449 0.334,0.461c-0.008,0.012 -0.335,0.011 -0.548,-0.154c-0.228,-0.143 -0.342,-0.449 -0.334,-0.461" style="fill:#fff;fill-rule:nonzero;"/><path d="M34.165,66.773c0,0 0.18,0.077 0.413,0.252c0.231,0.172 0.514,0.441 0.734,0.759c0.224,0.315 0.381,0.671 0.465,0.948c0.085,0.277 0.097,0.474 0.097,0.474c0,0 -0.125,-0.153 -0.286,-0.381c-0.16,-0.225 -0.371,-0.526 -0.583,-0.826c-0.21,-0.301 -0.421,-0.602 -0.578,-0.828c-0.16,-0.229 -0.262,-0.398 -0.262,-0.398" style="fill:#fff;fill-rule:nonzero;"/><path d="M33.564,68.621c0,0 0.207,0.101 0.482,0.303c0.273,0.201 0.615,0.501 0.908,0.846c0.295,0.343 0.538,0.728 0.694,1.03c0.157,0.302 0.224,0.523 0.224,0.523c0.001,0 -0.17,-0.157 -0.397,-0.402c-0.226,-0.246 -0.523,-0.572 -0.806,-0.907c-0.287,-0.332 -0.561,-0.677 -0.77,-0.939c-0.206,-0.262 -0.335,-0.454 -0.335,-0.454" style="fill:#fff;fill-rule:nonzero;"/><path d="M34.261,71.943c0,0 0.099,0.052 0.206,0.161c0.106,0.109 0.225,0.27 0.297,0.453c0.075,0.182 0.101,0.381 0.099,0.533c-0.001,0.152 -0.037,0.259 -0.037,0.259c0,0 -0.082,-0.078 -0.166,-0.199c-0.082,-0.121 -0.178,-0.282 -0.244,-0.453c-0.071,-0.169 -0.112,-0.352 -0.136,-0.497c-0.024,-0.144 -0.019,-0.257 -0.019,-0.257" style="fill:#fff;fill-rule:nonzero;"/><path d="M5.719,80.098c0,0 0.022,0.19 0.066,0.444c0.038,0.258 0.124,0.584 0.232,0.898c0.113,0.313 0.252,0.62 0.384,0.845c0.136,0.233 0.227,0.387 0.227,0.387c0,0 -0.178,-0.066 -0.39,-0.252c-0.214,-0.183 -0.449,-0.495 -0.574,-0.855c-0.129,-0.36 -0.14,-0.749 -0.09,-1.025c0.049,-0.282 0.145,-0.442 0.145,-0.442" style="fill:#fff;fill-rule:nonzero;"/><path d="M6.205,83.602c0,0 0.111,0.019 0.246,0.079c0.134,0.062 0.3,0.158 0.439,0.285c0.142,0.125 0.255,0.28 0.33,0.407c0.074,0.129 0.104,0.236 0.104,0.236c0,0 -0.11,-0.018 -0.245,-0.079c-0.135,-0.061 -0.301,-0.157 -0.439,-0.285c-0.142,-0.124 -0.255,-0.28 -0.33,-0.407c-0.075,-0.128 -0.105,-0.236 -0.105,-0.236" style="fill:#fff;fill-rule:nonzero;"/><path d="M7.469,80.839c0,0 0.115,0.039 0.253,0.127c0.137,0.089 0.306,0.22 0.444,0.379c0.141,0.156 0.25,0.34 0.321,0.488c0.07,0.148 0.095,0.267 0.095,0.267c0,0 -0.115,-0.039 -0.254,-0.127c-0.138,-0.089 -0.306,-0.221 -0.443,-0.38c-0.141,-0.156 -0.25,-0.34 -0.321,-0.488c-0.07,-0.148 -0.095,-0.266 -0.095,-0.266" style="fill:#fff;fill-rule:nonzero;"/><path d="M9.089,84.468c0,0 0.123,0.053 0.276,0.145c0.152,0.094 0.346,0.219 0.523,0.361c0.18,0.138 0.347,0.296 0.476,0.422c0.126,0.126 0.206,0.232 0.206,0.232c0,0 -0.134,0.003 -0.314,-0.051c-0.179,-0.051 -0.407,-0.155 -0.599,-0.309c-0.196,-0.15 -0.349,-0.348 -0.443,-0.509c-0.095,-0.163 -0.125,-0.291 -0.125,-0.291" style="fill:#fff;fill-rule:nonzero;"/></svg>

<?xml version="1.0" encoding="UTF-8" standalone="no"?>
<!DOCTYPE svg PUBLIC "-//W3C//DTD SVG 1.1//EN" "http://www.w3.org/Graphics/SVG/1.1/DTD/svg11.dtd">
<svg width="100%" height="100%" viewBox="0 0 96 96" version="1.1" xmlns="http://www.w3.org/2000/svg" xmlns:xlink="http://www.w3.org/1999/xlink" xml:space="preserve" xmlns:serif="http://www.serif.com/" style="fill-rule:evenodd;clip-rule:evenodd;stroke-linejoin:round;stroke-miterlimit:1.41421;">
    <g transform="matrix(1,0,0,1,24,0)">
        <path d="M31.531,57.912L24.662,57.912L24.349,57.912L17.48,57.912C17.48,57.912 10.163,66.313 10.841,78.779C11.475,90.447 23.029,90.601 24.505,90.572C25.982,90.601 37.536,90.447 38.17,78.779C38.848,66.313 31.531,57.912 31.531,57.912" style="fill:rgb(208,182,149);fill-rule:nonzero;"/>
    </g>
    <g transform="matrix(1,0,0,1,24,0)">
        <path d="M32.956,77.548C32.956,83.29 29.172,87.946 24.506,87.946C19.838,87.946 16.055,83.29 16.055,77.548C16.055,71.805 19.838,67.15 24.506,67.15C29.172,67.15 32.956,71.805 32.956,77.548" style="fill:rgb(245,245,245);fill-rule:nonzero;"/>
    </g>
    <g transform="matrix(1,0,0,1,24,0)">
        <path d="M41.284,1.295C29.694,-7.472 27.402,31.147 27.402,31.147L30.592,35.208C30.592,35.208 52.873,10.063 41.284,1.295" style="fill:rgb(208,182,149);fill-rule:nonzero;"/>
    </g>
    <g transform="matrix(1,0,0,1,24,0)">
        <path d="M38.641,11.028C32.16,6.126 30.879,27.72 30.879,27.72L32.663,29.991C32.663,29.991 45.122,15.931 38.641,11.028" style="fill:rgb(163,133,97);fill-rule:nonzero;"/>
    </g>
    <g transform="matrix(1,0,0,1,24,0)">
        <path d="M6.898,1.295C18.487,-7.472 20.779,31.147 20.779,31.147L17.59,35.208C17.59,35.208 -4.692,10.063 6.898,1.295" style="fill:rgb(208,182,149);fill-rule:nonzero;"/>
    </g>
    <g transform="matrix(1,0,0,1,24,0)">
        <path d="M9.54,11.028C16.021,6.126 17.302,27.72 17.302,27.72L15.519,29.991C15.519,29.991 3.06,15.931 9.54,11.028" style="fill:rgb(163,133,97);fill-rule:nonzero;"/>
    </g>
    <g transform="matrix(1,0,0,1,24,0)">
        <path d="M43.076,41.251C36.481,26.815 28.978,25.286 26.156,25.27C24.952,25.18 22.629,25.276 22.629,25.276C19.639,25.38 12.366,27.212 5.953,41.251C4.415,44.617 3.703,48.492 5.203,52C6.428,54.869 8.863,57.01 11.496,58.576C14.941,60.625 18.834,62.365 22.913,62.728C27.193,63.109 31.291,61.621 35.116,59.845C38.092,58.462 41.014,56.556 42.86,53.78C44.99,50.577 45.056,46.732 43.842,43.165C43.621,42.514 43.362,41.876 43.076,41.251" style="fill:rgb(208,182,149);fill-rule:nonzero;"/>
    </g>
    <g transform="matrix(1,0,0,1,24,0)">
        <path d="M7.876,50.109C4.315,48.453 0.123,49.347 0.081,49.356L0,48.99C0.176,48.951 4.361,48.06 8.034,49.77L7.876,50.109Z" style="fill:rgb(163,133,97);fill-rule:nonzero;"/>
    </g>
    <g transform="matrix(1,0,0,1,24,0)">
        <path d="M0.208,54.573L0.019,54.249C0.175,54.158 3.885,52.028 7.905,52.527L7.859,52.899C3.963,52.418 0.245,54.552 0.208,54.573" style="fill:rgb(163,133,97);fill-rule:nonzero;"/>
    </g>
    <g transform="matrix(1,0,0,1,24,0)">
        <path d="M2.355,60.234L2.056,60.009C2.164,59.865 4.757,56.464 8.659,55.368L8.76,55.729C4.983,56.79 2.381,60.2 2.355,60.234" style="fill:rgb(163,133,97);fill-rule:nonzero;"/>
    </g>
    <g transform="matrix(1,0,0,1,24,0)">
        <path d="M39.978,50.109L39.82,49.77C43.495,48.06 47.677,48.951 47.853,48.99L47.773,49.356C47.731,49.347 43.534,48.455 39.978,50.109" style="fill:rgb(163,133,97);fill-rule:nonzero;"/>
    </g>
    <g transform="matrix(1,0,0,1,24,0)">
        <path d="M47.645,54.573C47.608,54.551 43.887,52.416 39.994,52.899L39.949,52.527C43.967,52.029 47.678,54.158 47.834,54.249L47.645,54.573Z" style="fill:rgb(163,133,97);fill-rule:nonzero;"/>
    </g>
    <g transform="matrix(1,0,0,1,24,0)">
        <path d="M45.499,60.234C45.473,60.2 42.87,56.79 39.094,55.729L39.195,55.368C43.097,56.464 45.69,59.865 45.798,60.009L45.499,60.234Z" style="fill:rgb(163,133,97);fill-rule:nonzero;"/>
    </g>
    <g transform="matrix(1,0,0,1,24,0)">
        <path d="M17.363,43.158C17.363,44.194 16.523,45.034 15.487,45.034C14.45,45.034 13.611,44.194 13.611,43.158C13.611,42.122 14.45,41.282 15.487,41.282C16.523,41.282 17.363,42.122 17.363,43.158" style="fill:rgb(61,59,55);fill-rule:nonzero;"/>
    </g>
    <g transform="matrix(1,0,0,1,24,0)">
        <path d="M35.4,43.158C35.4,44.194 34.56,45.034 33.524,45.034C32.489,45.034 31.649,44.194 31.649,43.158C31.649,42.122 32.489,41.282 33.524,41.282C34.56,41.282 35.4,42.122 35.4,43.158" style="fill:rgb(61,59,55);fill-rule:nonzero;"/>
    </g>
    <g transform="matrix(1,0,0,1,24,0)">
        <path d="M29.193,54.464C29.193,58.133 26.711,61.107 23.65,61.107C20.588,61.107 18.107,58.133 18.107,54.464C18.107,50.795 20.588,47.821 23.65,47.821C26.711,47.821 29.193,50.795 29.193,54.464" style="fill:white;fill-rule:nonzero;"/>
    </g>
    <g transform="matrix(1,0,0,1,24,0)">
        <path d="M21.551,50.958C21.585,50.382 23.161,50.21 23.736,50.21C24.312,50.21 25.729,50.422 25.749,50.958C25.772,51.543 24.081,52.396 23.65,52.396C23.219,52.396 21.516,51.541 21.551,50.958" style="fill:rgb(61,59,55);fill-rule:nonzero;"/>
    </g>
    <g transform="matrix(1,0,0,1,24,0)">
        <path d="M13.024,77.547C12.23,76.112 9.742,76.073 8.316,76.22C6.61,76.397 4.484,77.523 3.929,79.249C3.467,80.684 4.159,82.294 4.87,83.514C6.485,86.285 8.999,88.463 11.366,90.574C11.366,90.574 0.75,92.865 2.205,94.763C3.66,96.662 20.533,93.644 19.072,89.739C17.611,85.838 13.037,77.57 13.024,77.547" style="fill:rgb(208,182,149);fill-rule:nonzero;"/>
    </g>
    <g transform="matrix(1,0,0,1,24,0)">
        <path d="M36.241,77.547C37.036,76.112 39.524,76.073 40.95,76.22C42.655,76.397 44.782,77.523 45.337,79.249C45.799,80.684 45.108,82.294 44.395,83.514C42.781,86.285 40.267,88.463 37.9,90.574C37.9,90.574 48.516,92.865 47.061,94.763C45.606,96.662 28.732,93.644 30.194,89.739C31.654,85.838 36.229,77.57 36.241,77.547" style="fill:rgb(208,182,149);fill-rule:nonzero;"/>
    </g>
    <g transform="matrix(1,0,0,1,24,0)">
        <path d="M21.079,73.47C16.95,71.18 17.168,64.532 17.168,64.532L17.168,64.163L12.652,71.845C17.822,83.22 25.209,75.76 21.079,73.47" style="fill:rgb(208,182,149);fill-rule:nonzero;"/>
    </g>
    <g transform="matrix(1,0,0,1,24,0)">
        <path d="M28.957,73.47C33.087,71.18 32.869,64.532 32.869,64.532L32.869,64.163L37.385,71.845C32.215,83.22 24.828,75.76 28.957,73.47" style="fill:rgb(208,182,149);fill-rule:nonzero;"/>
    </g>
    <g transform="matrix(1,0,0,1,24,0)">
        <path d="M22.588,29.575C22.588,29.575 22.688,29.525 22.833,29.495C22.978,29.467 23.169,29.447 23.356,29.469C23.544,29.487 23.727,29.546 23.862,29.606C23.997,29.666 24.084,29.737 24.084,29.737C24.084,29.737 23.984,29.786 23.839,29.816C23.694,29.845 23.502,29.864 23.316,29.842C23.129,29.824 22.946,29.764 22.811,29.704C22.675,29.644 22.588,29.575 22.588,29.575" style="fill:white;fill-rule:nonzero;"/>
    </g>
    <g transform="matrix(1,0,0,1,24,0)">
        <path d="M23.466,30.825C23.466,30.825 23.56,30.784 23.7,30.778C23.837,30.771 24.019,30.79 24.183,30.862C24.347,30.93 24.489,31.046 24.579,31.15C24.669,31.255 24.707,31.352 24.707,31.352C24.696,31.362 24.323,31.339 24.036,31.207C23.742,31.092 23.467,30.84 23.466,30.825" style="fill:white;fill-rule:nonzero;"/>
    </g>
    <g transform="matrix(1,0,0,1,24,0)">
        <path d="M22.586,32.846C22.586,32.846 22.688,32.812 22.828,32.803C22.969,32.796 23.151,32.804 23.322,32.853C23.67,32.933 23.964,33.207 23.961,33.221C23.957,33.235 23.564,33.322 23.224,33.214C23.052,33.169 22.89,33.084 22.773,33.006C22.656,32.927 22.586,32.846 22.586,32.846" style="fill:white;fill-rule:nonzero;"/>
    </g>
    <g transform="matrix(1,0,0,1,24,0)">
        <path d="M25.463,34.076C25.463,34.076 25.565,34.027 25.724,34.018C25.88,34.007 26.092,34.033 26.279,34.125C26.468,34.212 26.622,34.358 26.713,34.486C26.804,34.615 26.831,34.726 26.831,34.726C26.816,34.731 26.427,34.616 26.117,34.463C25.804,34.319 25.469,34.091 25.463,34.076" style="fill:white;fill-rule:nonzero;"/>
    </g>
    <g transform="matrix(1,0,0,1,24,0)">
        <path d="M25.976,32.669C25.981,32.655 26.309,32.56 26.581,32.655C26.86,32.725 27.081,32.986 27.077,33C27.073,33.014 26.744,33.11 26.473,33.014C26.194,32.944 25.972,32.683 25.976,32.669" style="fill:white;fill-rule:nonzero;"/>
    </g>
    <g transform="matrix(1,0,0,1,24,0)">
        <path d="M25.824,30.113C25.832,30.101 26.159,30.103 26.372,30.267C26.6,30.409 26.714,30.716 26.706,30.728C26.698,30.74 26.371,30.739 26.158,30.574C25.93,30.431 25.816,30.125 25.824,30.113" style="fill:white;fill-rule:nonzero;"/>
    </g>
    <g transform="matrix(1,0,0,1,24,0)">
        <path d="M34.165,66.773C34.165,66.773 34.345,66.85 34.578,67.025C34.809,67.197 35.092,67.466 35.312,67.784C35.536,68.099 35.693,68.455 35.777,68.732C35.862,69.009 35.874,69.206 35.874,69.206C35.874,69.206 35.749,69.053 35.588,68.825C35.428,68.6 35.217,68.299 35.005,67.999C34.795,67.698 34.584,67.397 34.427,67.171C34.267,66.942 34.165,66.773 34.165,66.773" style="fill:white;fill-rule:nonzero;"/>
    </g>
    <g transform="matrix(1,0,0,1,24,0)">
        <path d="M33.564,68.621C33.564,68.621 33.771,68.722 34.046,68.924C34.319,69.125 34.661,69.425 34.954,69.77C35.249,70.113 35.492,70.498 35.648,70.8C35.805,71.102 35.872,71.323 35.872,71.323C35.873,71.323 35.702,71.166 35.475,70.921C35.249,70.675 34.952,70.349 34.669,70.014C34.382,69.682 34.108,69.337 33.899,69.075C33.693,68.813 33.564,68.621 33.564,68.621" style="fill:white;fill-rule:nonzero;"/>
    </g>
    <g transform="matrix(1,0,0,1,24,0)">
        <path d="M34.261,71.943C34.261,71.943 34.36,71.995 34.467,72.104C34.573,72.213 34.692,72.374 34.764,72.557C34.839,72.739 34.865,72.938 34.863,73.09C34.862,73.242 34.826,73.349 34.826,73.349C34.826,73.349 34.744,73.271 34.66,73.15C34.578,73.029 34.482,72.868 34.416,72.697C34.345,72.528 34.304,72.345 34.28,72.2C34.256,72.056 34.261,71.943 34.261,71.943" style="fill:white;fill-rule:nonzero;"/>
    </g>
    <g transform="matrix(1,0,0,1,24,0)">
        <path d="M5.719,80.098C5.719,80.098 5.741,80.288 5.785,80.542C5.823,80.8 5.909,81.126 6.017,81.44C6.13,81.753 6.269,82.06 6.401,82.285C6.537,82.518 6.628,82.672 6.628,82.672C6.628,82.672 6.45,82.606 6.238,82.42C6.024,82.237 5.789,81.925 5.664,81.565C5.535,81.205 5.524,80.816 5.574,80.54C5.623,80.258 5.719,80.098 5.719,80.098" style="fill:white;fill-rule:nonzero;"/>
    </g>
    <g transform="matrix(1,0,0,1,24,0)">
        <path d="M6.205,83.602C6.205,83.602 6.316,83.621 6.451,83.681C6.585,83.743 6.751,83.839 6.89,83.966C7.032,84.091 7.145,84.246 7.22,84.373C7.294,84.502 7.324,84.609 7.324,84.609C7.324,84.609 7.214,84.591 7.079,84.53C6.944,84.469 6.778,84.373 6.64,84.245C6.498,84.121 6.385,83.965 6.31,83.838C6.235,83.71 6.205,83.602 6.205,83.602" style="fill:white;fill-rule:nonzero;"/>
    </g>
    <g transform="matrix(1,0,0,1,24,0)">
        <path d="M7.469,80.839C7.469,80.839 7.584,80.878 7.722,80.966C7.859,81.055 8.028,81.186 8.166,81.345C8.307,81.501 8.416,81.685 8.487,81.833C8.557,81.981 8.582,82.1 8.582,82.1C8.582,82.1 8.467,82.061 8.328,81.973C8.19,81.884 8.022,81.752 7.885,81.593C7.744,81.437 7.635,81.253 7.564,81.105C7.494,80.957 7.469,80.839 7.469,80.839" style="fill:white;fill-rule:nonzero;"/>
    </g>
    <g transform="matrix(1,0,0,1,24,0)">
        <path d="M9.089,84.468C9.089,84.468 9.212,84.521 9.365,84.613C9.517,84.707 9.711,84.832 9.888,84.974C10.068,85.112 10.235,85.27 10.364,85.396C10.49,85.522 10.57,85.628 10.57,85.628C10.57,85.628 10.436,85.631 10.256,85.577C10.077,85.526 9.849,85.422 9.657,85.268C9.461,85.118 9.308,84.92 9.214,84.759C9.119,84.596 9.089,84.468 9.089,84.468" style="fill:white;fill-rule:nonzero;"/>
    </g>
</svg>
